X:303
T: SPRINH AUF FEINS HIRSCHELEIN
N: E1453
O: Europa, Mitteleuropa, Deutschland, Hessen, Spessart; Odenwald
R: Staende -, Jaeger - Lied
M: 4/4
L: 1/16
K: D
D2F2 | A4A4A4B4 | A6G2F4
A3d | B4A4E4B4 | A6G2F4
A3G | F2E2F2E2F4A3G | F2E2F2E2F4
A3d | B4A4E4B4 | A6G2F4

@@@ Tune index: 4987
